lib/preview/nrk-logo-preview-nrk-tegnspraak-title-below-on-dark.svg

<svg width="83" height="41" viewBox="0 0 83 41" fill="none" xmlns="http://www.w3.org/2000/svg">
<path d="M0 18V6.0011H3.93719V18H0ZM9.29381 7.91079L11.5581 18H7.24917L4.54549 6.0011H6.96218C7.51635 5.99391 8.05406 6.18926 8.4745 6.5504C8.89562 6.89639 9.18495 7.37671 9.29381 7.91079ZM12.1495 18V6.0011H16.0867V18H12.1495ZM19.0605 10.5641C18.6362 10.5682 18.2188 10.4572 17.8525 10.243C17.4912 10.0341 17.1911 9.73397 16.9823 9.37261C16.7678 9.00634 16.6568 8.58877 16.661 8.16433C16.6561 7.74247 16.7672 7.32739 16.9823 6.96443C17.1933 6.607 17.4931 6.3101 17.8525 6.10253C18.2189 5.88851 18.6362 5.77752 19.0605 5.78139C19.4822 5.77685 19.8971 5.88794 20.2602 6.10253C20.616 6.31192 20.9127 6.60857 21.122 6.96443C21.3368 7.32749 21.4479 7.7425 21.4433 8.16433C21.4473 8.58874 21.3363 9.00623 21.122 9.37261C20.9149 9.73238 20.6179 10.0323 20.2602 10.243C19.8971 10.458 19.4819 10.5691 19.0599 10.5641H19.0605ZM22.0516 18V6.0011H25.9892V18H22.0516ZM30.9737 12.5582C30.9848 12.5699 31.0693 12.7079 31.2272 12.9723C31.3851 13.2367 31.5907 13.5747 31.8439 13.9863C32.0974 14.3977 32.3649 14.8343 32.6463 15.296C32.9278 15.7577 33.1926 16.1944 33.4408 16.6058C33.6881 17.0172 33.9697 17.4819 34.2857 18H29.9598C29.6893 17.5606 29.4441 17.1635 29.2245 16.8086C29.0048 16.4537 28.7713 16.0706 28.5238 15.6594C28.2758 15.2485 28.0306 14.8485 27.7882 14.4595C27.5458 14.0704 27.3375 13.7296 27.1633 13.4371C26.9883 13.1443 26.8671 12.9471 26.7997 12.8455C26.6325 12.5935 26.5336 12.3023 26.5127 12.0006C26.5294 11.7109 26.6226 11.431 26.7828 11.1891C26.8504 11.0765 26.9743 10.8764 27.1545 10.5891C27.3348 10.3018 27.546 9.96106 27.7882 9.56673C28.0304 9.1724 28.2756 8.76961 28.5238 8.35838C28.772 7.94715 29.0056 7.56124 29.2245 7.20071C29.4445 6.84056 29.6897 6.44059 29.9598 6.00082H34.2857L30.9396 11.4595C30.8361 11.6216 30.7777 11.8084 30.7706 12.0006C30.7818 12.2023 30.8522 12.3963 30.9731 12.5582H30.9737Z" fill="white"/>
<path d="M0.127625 24.486H3.99895V35.0011H5.77399V24.486H9.62869V22.9983H0.127625V24.486Z" fill="#9FDAF5"/>
<path d="M16.485 27.4698C16.1605 27.0492 15.7323 26.72 15.2424 26.5146C14.6981 26.2925 14.1144 26.1832 13.5265 26.1934C12.9344 26.1834 12.3467 26.2986 11.8022 26.5315C11.3069 26.7484 10.8653 27.0716 10.5089 27.4782C10.1417 27.9054 9.86554 28.403 9.69718 28.9405C9.50455 29.5558 9.4105 30.1977 9.41852 30.8424C9.39459 31.657 9.56548 32.4655 9.91696 33.2007C10.2383 33.8378 10.7573 34.3538 11.3962 34.6715C12.146 35.0246 12.9686 35.1955 13.797 35.1702C14.1955 35.1736 14.5937 35.1482 14.9886 35.0941C15.3186 35.0466 15.6439 34.9702 15.9606 34.8659C16.2748 34.7605 16.5801 34.6305 16.8738 34.477L16.9921 33.1753C16.7778 33.2542 16.5608 33.3331 16.341 33.412C16.1212 33.4909 15.893 33.5613 15.6563 33.6233C15.4176 33.6859 15.1747 33.7311 14.9294 33.7586C14.6826 33.7867 14.4343 33.8008 14.1858 33.8008C13.7419 33.808 13.2989 33.7597 12.8669 33.6571C12.5185 33.5739 12.1962 33.4055 11.929 33.1669C11.6587 32.9097 11.4606 32.5862 11.3542 32.2286C11.2437 31.8665 11.1817 31.4913 11.1699 31.1129H17.2792C17.3624 30.4137 17.331 29.7057 17.1863 29.0166C17.0674 28.4563 16.8281 27.9284 16.485 27.4698ZM12.2248 27.8755C12.6214 27.6347 13.0794 27.5143 13.5432 27.5289C14.0075 27.5057 14.4661 27.6397 14.8449 27.9093C15.1816 28.1779 15.422 28.5488 15.5295 28.9659C15.6138 29.2743 15.6554 29.5929 15.653 29.9126H11.2068C11.2384 29.5755 11.3105 29.2435 11.4215 28.9236C11.5659 28.495 11.8484 28.1263 12.2248 27.8755Z" fill="#9FDAF5"/>
<path d="M24.8106 26.4132C24.5523 26.3425 24.2897 26.2889 24.0245 26.2526C23.7218 26.2119 23.4167 26.1921 23.1113 26.1934C22.5598 26.1912 22.0135 26.3004 21.5053 26.5146C20.996 26.7302 20.5337 27.0432 20.1444 27.436C19.7294 27.8595 19.4096 28.3667 19.2062 28.9236C18.9703 29.5764 18.8557 30.2668 18.8681 30.9607C18.8496 31.7242 18.9965 32.4825 19.2989 33.1838C19.5639 33.7835 20.0027 34.2899 20.5586 34.6376C21.1668 34.9964 21.8643 35.1752 22.57 35.1533C23.1901 35.151 23.804 35.0305 24.3789 34.7982C24.7225 34.6583 25.0464 34.4743 25.3425 34.2508V34.7137C25.3495 35.0946 25.2953 35.4741 25.1822 35.8379C25.0846 36.1431 24.9167 36.421 24.6919 36.6494C24.4497 36.882 24.1533 37.0505 23.8295 37.1396C23.4084 37.2553 22.9728 37.3094 22.5362 37.3002C22.1889 37.2997 21.8419 37.28 21.4968 37.2411C21.1344 37.2001 20.7755 37.1323 20.4231 37.0382C20.0602 36.9415 19.7043 36.8201 19.358 36.6747L19.544 38.1624C19.8549 38.2885 20.1741 38.3931 20.4994 38.4752C20.8415 38.5615 21.1887 38.6265 21.5388 38.6696C21.909 38.7151 22.2816 38.7377 22.6546 38.7372C23.4866 38.7633 24.3136 38.5984 25.072 38.2554C25.6879 37.9686 26.2033 37.5033 26.5512 36.9199C26.8918 36.3202 27.0641 35.6398 27.0502 34.9504V26.1934L25.3966 26.6189C25.2058 26.5381 25.01 26.4694 24.8106 26.4132ZM25.123 33.1838C24.9136 33.3055 24.6962 33.4128 24.4722 33.505C24.2749 33.586 24.0714 33.6511 23.8636 33.6994C23.6612 33.7452 23.4543 33.7679 23.2468 33.767C22.739 33.7854 22.2351 33.6718 21.7842 33.4374C21.3914 33.2131 21.0873 32.8611 20.9224 32.4399C20.7186 31.8916 20.6238 31.3087 20.6434 30.7241C20.6358 30.2575 20.7013 29.7926 20.8375 29.3463C20.9483 28.9795 21.1389 28.6417 21.3957 28.3573C21.6457 28.0929 21.9517 27.8878 22.2914 27.7572C22.6773 27.6109 23.0875 27.5392 23.5001 27.5458C23.7665 27.5456 24.0324 27.5683 24.295 27.6135C24.5638 27.6609 24.8292 27.7259 25.0895 27.8079C25.1723 27.8338 25.2586 27.8682 25.3431 27.8997V33.0536C25.2687 33.0981 25.1929 33.1438 25.123 33.1838Z" fill="#9FDAF5"/>
<path d="M36.2975 26.5484C35.7952 26.2948 35.2368 26.1726 34.6746 26.1934C34.1839 26.1944 33.6963 26.2714 33.2291 26.4216C32.7478 26.575 32.2898 26.794 31.8683 27.0725C31.7051 27.1798 31.5482 27.2979 31.3949 27.4191V26.2103L29.6706 26.4639V35.0011H31.3949V28.5805C31.5618 28.4827 31.734 28.3941 31.9105 28.315C32.148 28.2099 32.3906 28.1168 32.6375 28.0361C32.8749 27.9585 33.1179 27.8992 33.3644 27.8586C33.5963 27.82 33.8309 27.8002 34.066 27.7994C34.3418 27.793 34.6166 27.836 34.8774 27.9262C35.0926 28.0037 35.2845 28.1346 35.4353 28.3066C35.5905 28.4931 35.7005 28.7129 35.7565 28.949C35.8285 29.2478 35.8626 29.5545 35.8579 29.8619V35.0011H37.5823V29.5069C37.6048 28.866 37.4954 28.2273 37.2611 27.6304C37.0701 27.172 36.7308 26.791 36.2975 26.5484Z" fill="#9FDAF5"/>
<path d="M45.4768 31.1129C45.3037 30.9295 45.1043 30.7728 44.8851 30.648C44.6582 30.518 44.4205 30.4078 44.1748 30.3183C43.9945 30.262 43.817 30.2028 43.6423 30.1408C43.4676 30.0788 43.2929 30.0225 43.1182 29.9718C42.9435 29.921 42.7745 29.8675 42.611 29.8112C42.4578 29.759 42.3082 29.6969 42.1631 29.6252C42.0241 29.5514 41.8912 29.4666 41.7658 29.3716C41.65 29.2843 41.5524 29.1752 41.4787 29.0504C41.404 28.9222 41.366 28.7761 41.3685 28.6278C41.364 28.4648 41.4051 28.3038 41.4871 28.1629C41.5754 28.0245 41.6976 27.911 41.8421 27.8332C42.019 27.7361 42.2101 27.6676 42.4085 27.6304C42.6563 27.5828 42.9084 27.5602 43.1608 27.5627C43.2845 27.5627 43.4197 27.5687 43.5665 27.5796C43.7133 27.5906 43.8733 27.6109 44.0483 27.6388C44.2233 27.6667 44.3974 27.7039 44.5721 27.7487C44.7467 27.7935 44.9243 27.8445 45.1049 27.9009C45.272 27.9522 45.4357 28.0143 45.5948 28.0868L45.7135 26.7175C45.4991 26.6273 45.2878 26.5484 45.0795 26.4808C44.8713 26.4133 44.6597 26.3569 44.4455 26.3117C44.2364 26.2674 44.0247 26.2364 43.8116 26.2188C43.6029 26.2019 43.3972 26.1934 43.1946 26.1934C42.7276 26.1886 42.2618 26.2426 41.8083 26.354C41.4204 26.4482 41.0516 26.6083 40.7179 26.8274C40.4153 27.0275 40.1682 27.3008 39.9994 27.6219C39.8227 27.9758 39.7357 28.3676 39.7459 28.763C39.7407 29.0478 39.7866 29.3312 39.8814 29.5998C39.9615 29.8253 40.0818 30.0343 40.2364 30.2169C40.3867 30.3894 40.5602 30.5401 40.752 30.6649C40.9517 30.7959 41.1641 30.9063 41.386 30.9945C41.5097 31.0396 41.6394 31.0847 41.7748 31.1298C41.9102 31.1749 42.0427 31.2171 42.1721 31.2566C42.3014 31.2963 42.4282 31.3355 42.5522 31.3749C42.6761 31.4144 42.7973 31.4538 42.9156 31.4932C43.034 31.5327 43.1495 31.5693 43.2625 31.6031C43.4136 31.6567 43.5604 31.7217 43.7017 31.7975C43.8258 31.8632 43.9422 31.9426 44.0486 32.0342C44.1421 32.1159 44.2169 32.2168 44.268 32.33C44.3199 32.4471 44.3459 32.5739 44.3444 32.702C44.3504 32.827 44.3285 32.9519 44.2802 33.0674C44.2319 33.1829 44.1584 33.2862 44.0652 33.3697C43.8559 33.5446 43.6059 33.6638 43.3383 33.7163C43.0247 33.7855 42.7045 33.8195 42.3834 33.8177C42.1826 33.8163 41.9822 33.8022 41.7832 33.7755C41.5635 33.7477 41.3324 33.7082 41.0901 33.6571C40.8478 33.606 40.5998 33.5441 40.346 33.4712C40.0926 33.3981 39.8363 33.3164 39.5771 33.226L39.6447 34.663C39.9374 34.7644 40.205 34.8461 40.4477 34.9081C40.6904 34.9701 40.9214 35.0236 41.1408 35.0687C41.3526 35.1126 41.5673 35.1409 41.7832 35.1532C41.9916 35.1645 42.2029 35.1701 42.4172 35.1701C42.8886 35.1726 43.3589 35.1244 43.8201 35.0265C44.226 34.9439 44.6148 34.7924 44.9696 34.5785C45.2894 34.3833 45.5542 34.1098 45.7391 33.7839C45.9326 33.4262 46.0287 33.024 46.0178 32.6174C46.0248 32.3208 45.9761 32.0255 45.8741 31.7468C45.7833 31.5121 45.6484 31.2969 45.4768 31.1129Z" fill="#9FDAF5"/>
<path d="M54.5634 26.7259C53.9567 26.3544 53.2542 26.1693 52.5432 26.1934C52.1212 26.1955 51.7011 26.2494 51.2922 26.354C50.8503 26.4663 50.4243 26.6339 50.0243 26.8527C49.9449 26.8958 49.8663 26.9437 49.7877 26.9922V26.2103L48.0633 26.4808V38.5512H49.7877V34.7664C49.7992 34.7712 49.8099 34.7765 49.8215 34.7813C50.1338 34.9111 50.4599 35.0047 50.7935 35.0603C51.1874 35.1252 51.5861 35.1563 51.9853 35.1532C52.7465 35.1663 53.497 34.9736 54.1577 34.5954C54.8064 34.2108 55.3337 33.6513 55.6791 32.9809C56.0785 32.1817 56.2731 31.2958 56.2455 30.4028C56.2613 29.6478 56.1143 28.8983 55.8147 28.2052C55.55 27.6011 55.1152 27.0871 54.5634 26.7259ZM54.1154 32.3808C53.9123 32.8298 53.572 33.2027 53.1433 33.4458C52.6669 33.6953 52.1341 33.8176 51.5965 33.8008C51.339 33.8009 51.0818 33.7812 50.8273 33.7416C50.5603 33.699 50.2973 33.634 50.0412 33.5472C49.9601 33.5191 49.8722 33.4869 49.7877 33.4559V28.1209C49.8102 28.1105 49.833 28.0969 49.8553 28.0868C50.1029 27.9741 50.3339 27.8783 50.5484 27.7994C50.7512 27.7237 50.9606 27.6671 51.1739 27.6304C51.3638 27.5977 51.556 27.5807 51.7487 27.5796C52.2698 27.5624 52.787 27.6757 53.2532 27.9093C53.6609 28.1313 53.9801 28.4863 54.1577 28.9152C54.3727 29.4638 54.4735 30.0506 54.4538 30.6395C54.4717 31.2378 54.3561 31.8327 54.1154 32.3808Z" fill="#9FDAF5"/>
<path d="M61.8744 26.3196C61.5583 26.4044 61.2565 26.5354 60.9787 26.7085C60.6902 26.8884 60.4235 27.1012 60.1839 27.3424C60.1441 27.3821 60.1053 27.4269 60.0658 27.4689V26.2098L58.3412 26.4633V35.0005H60.0658V28.6137C60.194 28.5242 60.3265 28.4413 60.4631 28.3652C60.6322 28.2721 60.8073 28.1902 60.9871 28.1201C61.1616 28.0524 61.3392 27.9933 61.5197 27.9426C61.7051 27.8909 61.8944 27.8542 62.0857 27.8327C62.2907 27.8099 62.4972 27.8042 62.7031 27.8158L62.9059 26.2267C62.5593 26.2018 62.211 26.2332 61.8744 26.3196Z" fill="#9FDAF5"/>
<path d="M71.7981 33.9361C71.6746 33.9474 71.5501 33.9287 71.4353 33.8816C71.3205 33.8345 71.2188 33.7604 71.1388 33.6656C70.982 33.3947 70.9168 33.0805 70.9528 32.7696L70.9866 29.2871C70.9904 28.922 70.9449 28.5581 70.8514 28.2052C70.7693 27.8956 70.6319 27.6035 70.4457 27.343C70.2577 27.0881 70.0188 26.8751 69.7441 26.7175C69.4251 26.5364 69.0801 26.4053 68.7214 26.3286C68.2826 26.2339 67.8347 26.1885 67.3858 26.1934C67.0298 26.1933 66.674 26.2158 66.3208 26.261C65.9871 26.303 65.6566 26.368 65.3318 26.4554C65.0306 26.5372 64.7343 26.6359 64.4443 26.7513L64.2414 28.1882C64.5232 28.0868 64.7909 28.0023 65.0444 27.9347C65.298 27.867 65.5431 27.8107 65.7798 27.7656C66.0117 27.7213 66.2459 27.6903 66.4814 27.6726C66.7122 27.6557 66.9405 27.6473 67.1661 27.6473C67.5108 27.64 67.8549 27.6798 68.1888 27.7656C68.4325 27.8266 68.6565 27.9488 68.8397 28.1206C69.0027 28.2878 69.1193 28.4947 69.1778 28.7208C69.2499 28.9995 69.284 29.2866 69.2792 29.5745L69.2773 29.9988L67.3013 30.1324C66.6254 30.1511 65.9595 30.3004 65.3403 30.5719C64.8768 30.7746 64.4767 31.0988 64.1823 31.5101C63.9324 31.8762 63.7997 32.3095 63.8019 32.7527C63.7987 33.1685 63.9005 33.5784 64.0977 33.9445C64.3046 34.3206 64.6158 34.6288 64.9937 34.832C65.4549 35.0719 65.9703 35.1884 66.4898 35.1701C66.9766 35.1813 67.4612 35.1011 67.9184 34.9335C68.3136 34.7787 68.6752 34.5491 68.9834 34.2573C69.1003 34.1451 69.2113 34.0269 69.3159 33.9031C69.3487 34.0781 69.4106 34.2464 69.499 34.401C69.6497 34.6598 69.8814 34.8617 70.1583 34.9757C70.4644 35.0987 70.7921 35.159 71.1219 35.1532C71.2234 35.1532 71.322 35.1504 71.4177 35.1448C71.5118 35.1391 71.6052 35.125 71.6967 35.1025C71.7868 35.0797 71.8683 35.0603 71.9418 35.0434C72.008 35.0286 72.073 35.0088 72.1362 34.9842L72.3222 33.8515C72.2289 33.8836 72.1326 33.9062 72.0348 33.9192C71.9563 33.9296 71.8773 33.9353 71.7981 33.9361ZM68.9834 33.1753C68.8001 33.3203 68.6018 33.445 68.3917 33.5472C68.1825 33.6488 67.961 33.7227 67.7327 33.767C67.4958 33.8126 67.2551 33.8353 67.0139 33.8346C66.7384 33.8425 66.4644 33.7906 66.2109 33.6825C66.0047 33.5929 65.8307 33.4425 65.7122 33.2514C65.5951 33.0488 65.5366 32.8176 65.5432 32.5836C65.5268 32.3018 65.6041 32.0225 65.7629 31.7891C65.9469 31.5743 66.1964 31.4258 66.473 31.3664C66.9048 31.2647 67.348 31.2192 67.7915 31.2312H69.2719L69.2643 32.9091C69.1785 33.0057 69.0845 33.0948 68.9834 33.1753Z" fill="#9FDAF5"/>
<path d="M66.3969 24.841C66.7163 24.9921 67.0663 25.0673 67.4196 25.0608C67.7821 25.0679 68.1411 24.9897 68.4678 24.8325C68.7623 24.6893 69.0111 24.4668 69.1862 24.1901C69.3668 23.8925 69.4578 23.5492 69.4483 23.2012C69.4591 22.9487 69.4148 22.697 69.3185 22.4634C69.2221 22.2299 69.076 22.0201 68.8904 21.8487C68.4941 21.5017 67.9797 21.3202 67.4534 21.3416C67.1013 21.3376 66.7524 21.4097 66.4307 21.5529C66.1286 21.6873 65.8728 21.9078 65.6953 22.1868C65.5071 22.4971 65.4131 22.8554 65.4248 23.2181C65.413 23.569 65.5041 23.9157 65.6868 24.2155C65.8611 24.4856 66.1069 24.7022 66.3969 24.841ZM66.6673 22.4066C66.7741 22.312 66.8985 22.2394 67.0334 22.193C67.1683 22.1466 67.3111 22.1273 67.4534 22.1361C67.663 22.1267 67.871 22.1765 68.0536 22.2798C68.2012 22.3706 68.3188 22.5029 68.3917 22.6602C68.4675 22.8303 68.505 23.015 68.5016 23.2012C68.5049 23.3883 68.4644 23.5735 68.3832 23.7421C68.3068 23.8975 68.1863 24.0269 68.0367 24.1141C67.8523 24.2121 67.6451 24.2588 67.4365 24.2493C67.2383 24.2552 67.0415 24.2146 66.8618 24.131C66.707 24.0557 66.582 23.9307 66.5067 23.7759C66.4231 23.5962 66.3826 23.3994 66.3884 23.2012C66.378 23.0567 66.3974 22.9116 66.4454 22.7749C66.4934 22.6383 66.5689 22.5129 66.6673 22.4066Z" fill="#9FDAF5"/>
<path d="M79.1348 35.0011H81.3663L77.2656 30.3803L81.2817 26.3794H79.1686L76.2758 29.5576H75.6523V22.2376L73.9279 22.4911V35.0011H75.6523V30.8593H75.6804L79.1348 35.0011Z" fill="#9FDAF5"/>
</svg>

<svg xmlns="http://www.w3.org/2000/svg" viewBox="0 0 83 41"><path fill="#fff" d="M0 18V6.001h3.937V18H0ZM9.294 7.91 11.558 18H7.25L4.545 6.001h2.417a2.276 2.276 0 0 1 1.513.55c.42.345.71.826.819 1.36ZM12.149 18V6.001h3.938V18h-3.938Zm6.912-7.436a2.382 2.382 0 0 1-2.4-2.4 2.301 2.301 0 0 1 .321-1.2 2.41 2.41 0 0 1 3.278-.861c.356.209.653.506.862.861.215.363.326.778.321 1.2a2.35 2.35 0 0 1-.321 1.209 2.4 2.4 0 0 1-.862.87 2.302 2.302 0 0 1-1.2.321ZM22.05 18V6.001h3.938V18h-3.937Zm8.923-5.442c.01.012.095.15.253.414.158.265.364.603.617 1.014a315.936 315.936 0 0 1 1.597 2.62c.247.411.529.876.845 1.394H29.96c-.27-.44-.516-.837-.736-1.191-.22-.355-.453-.738-.7-1.15-.248-.41-.493-.81-.736-1.2-.242-.389-.45-.73-.625-1.022-.175-.293-.296-.49-.363-.591a1.747 1.747 0 0 1-.287-.845c.016-.29.11-.57.27-.812.067-.113.191-.313.371-.6s.392-.628.634-1.022c.242-.395.488-.797.736-1.209l.7-1.157.736-1.2h4.326l-3.346 5.458a1.08 1.08 0 0 0-.17.542c.012.201.082.395.203.557Z"/><path fill="#9FDAF5" d="M.128 24.486h3.87v10.515h1.776V24.486h3.855v-1.488H.128v1.488ZM16.485 27.47a3.068 3.068 0 0 0-1.243-.955 4.342 4.342 0 0 0-1.716-.322 4.204 4.204 0 0 0-1.724.338c-.495.217-.937.54-1.293.947a4.143 4.143 0 0 0-.812 1.462 6.111 6.111 0 0 0-.278 1.902 5.12 5.12 0 0 0 .498 2.359c.321.637.84 1.153 1.48 1.47.749.354 1.572.525 2.4.5a8.26 8.26 0 0 0 1.192-.077c.33-.047.655-.124.972-.228a6.29 6.29 0 0 0 .913-.389l.118-1.302c-.214.08-.431.158-.651.237-.22.079-.448.15-.685.211a5.109 5.109 0 0 1-.727.136 6.574 6.574 0 0 1-.743.042 5.333 5.333 0 0 1-1.32-.144 2.162 2.162 0 0 1-.937-.49 2.136 2.136 0 0 1-.575-.938 4.28 4.28 0 0 1-.184-1.116h6.11c.082-.7.051-1.407-.094-2.096a3.952 3.952 0 0 0-.701-1.547Zm-4.26.405c.396-.24.854-.36 1.318-.346.465-.023.923.11 1.302.38.337.269.577.64.684 1.057.085.308.126.627.124.947h-4.446c.031-.337.103-.67.214-.99.145-.428.427-.797.804-1.047ZM24.81 26.413a6.123 6.123 0 0 0-.785-.16 6.64 6.64 0 0 0-.914-.06 4.093 4.093 0 0 0-1.606.322c-.509.215-.971.528-1.36.921-.416.424-.735.93-.939 1.488a5.695 5.695 0 0 0-.338 2.037 5.29 5.29 0 0 0 .43 2.223c.266.6.705 1.106 1.26 1.454a3.73 3.73 0 0 0 2.012.515 4.876 4.876 0 0 0 1.809-.355c.343-.14.667-.324.963-.547v.463c.008.38-.047.76-.16 1.124a2.044 2.044 0 0 1-.49.811 2.018 2.018 0 0 1-.863.49c-.42.116-.856.17-1.293.161a9.4 9.4 0 0 1-1.04-.059 7.376 7.376 0 0 1-1.073-.203 8.215 8.215 0 0 1-1.065-.363l.186 1.487c.31.127.63.231.955.313.343.087.69.151 1.04.195.37.045.743.068 1.116.067a5.452 5.452 0 0 0 2.417-.482 3.387 3.387 0 0 0 1.48-1.335c.34-.6.512-1.28.498-1.97v-8.757l-1.653.426c-.191-.08-.387-.15-.586-.206Zm.313 6.77a5.34 5.34 0 0 1-.65.322c-.198.081-.402.146-.61.194a2.74 2.74 0 0 1-.616.068 2.94 2.94 0 0 1-1.463-.33 1.98 1.98 0 0 1-.862-.997 4.493 4.493 0 0 1-.279-1.716 4.47 4.47 0 0 1 .194-1.378c.111-.366.302-.704.559-.989.25-.264.556-.47.895-.6a3.263 3.263 0 0 1 1.21-.211c.265 0 .531.022.794.067.269.048.534.113.794.195.083.026.17.06.254.092v5.154c-.074.044-.15.09-.22.13ZM36.297 26.548a3.328 3.328 0 0 0-1.622-.355c-.491.001-.979.078-1.446.229-.481.153-.94.372-1.36.65-.164.108-.32.226-.474.347V26.21l-1.724.254V35h1.724v-6.42c.167-.098.339-.187.515-.266.238-.105.48-.198.728-.279.237-.078.48-.137.726-.177.232-.039.467-.059.702-.06.276-.006.55.037.811.127.216.078.407.209.558.38.155.187.265.407.322.643.072.299.106.605.1.913v5.14h1.725v-5.495a4.686 4.686 0 0 0-.32-1.877 2.217 2.217 0 0 0-.965-1.082ZM45.477 31.113a2.545 2.545 0 0 0-.592-.465 4.586 4.586 0 0 0-.71-.33c-.18-.056-.358-.115-.533-.177a9.4 9.4 0 0 0-.524-.17 10.94 10.94 0 0 1-.507-.16 3.717 3.717 0 0 1-.448-.186 2.945 2.945 0 0 1-.397-.253 1.108 1.108 0 0 1-.287-.322.812.812 0 0 1-.11-.422.876.876 0 0 1 .118-.465.962.962 0 0 1 .355-.33c.177-.097.368-.165.566-.203.248-.047.5-.07.753-.067a5.527 5.527 0 0 1 .887.076c.175.028.35.065.524.11.175.045.352.096.533.152.167.051.33.113.49.186l.119-1.37a8.02 8.02 0 0 0-.634-.236 6.22 6.22 0 0 0-.634-.17 5.073 5.073 0 0 0-.634-.092 7.644 7.644 0 0 0-.617-.026 5.572 5.572 0 0 0-1.387.161 3.485 3.485 0 0 0-1.09.473c-.303.2-.55.474-.719.795a2.415 2.415 0 0 0-.253 1.141c-.005.285.04.568.135.837.08.225.2.434.355.617.15.172.324.323.516.448.2.13.412.241.634.33a14.685 14.685 0 0 0 .786.262 40.99 40.99 0 0 1 .744.236c.118.04.234.076.347.11.15.054.297.119.439.194.124.066.24.146.347.237a.866.866 0 0 1 .295.668.843.843 0 0 1-.279.668 1.62 1.62 0 0 1-.727.346c-.313.07-.633.103-.955.102a4.762 4.762 0 0 1-.6-.042 8.597 8.597 0 0 1-.693-.119c-.242-.051-.49-.113-.744-.186a14.75 14.75 0 0 1-.769-.245l.068 1.437c.292.101.56.183.803.245.242.062.473.116.693.16.212.045.426.073.642.085.209.011.42.017.634.017.472.003.942-.046 1.403-.144a3.627 3.627 0 0 0 1.15-.448c.32-.195.584-.468.77-.794.193-.358.289-.76.278-1.167a2.37 2.37 0 0 0-.144-.87 1.974 1.974 0 0 0-.397-.634ZM54.563 26.726a3.633 3.633 0 0 0-2.02-.533 5.15 5.15 0 0 0-1.25.161 5.428 5.428 0 0 0-1.505.638v-.782l-1.725.27v12.071h1.725v-3.785l.034.015c.312.13.638.224.971.28.394.064.793.095 1.192.092a4.226 4.226 0 0 0 2.173-.558 4.014 4.014 0 0 0 1.521-1.614c.4-.8.594-1.685.566-2.578a5.261 5.261 0 0 0-.43-2.198 3.398 3.398 0 0 0-1.252-1.48Zm-.448 5.655a2.326 2.326 0 0 1-.972 1.065c-.476.25-1.009.372-1.547.355a4.81 4.81 0 0 1-1.809-.345V28.12c.023-.01.046-.024.068-.034.248-.113.479-.209.693-.288a3.472 3.472 0 0 1 1.2-.22 3.128 3.128 0 0 1 1.505.33c.408.222.727.577.905 1.006a4.33 4.33 0 0 1 .296 1.725 4.031 4.031 0 0 1-.339 1.74ZM61.874 26.32a3.32 3.32 0 0 0-.895.389c-.289.18-.556.392-.795.633-.04.04-.079.085-.118.127v-1.26l-1.725.254v8.538h1.725v-6.387a4.402 4.402 0 0 1 .921-.494c.175-.068.352-.127.533-.177a3.607 3.607 0 0 1 1.183-.127l.203-1.59a3.22 3.22 0 0 0-1.032.094ZM71.798 33.936a.77.77 0 0 1-.66-.27 1.455 1.455 0 0 1-.185-.896l.034-3.483a4.06 4.06 0 0 0-.136-1.082 2.651 2.651 0 0 0-.405-.862 2.284 2.284 0 0 0-.702-.625 3.594 3.594 0 0 0-1.023-.39 6.02 6.02 0 0 0-1.335-.135c-.356 0-.712.023-1.065.068a7.328 7.328 0 0 0-.99.194c-.3.082-.597.18-.887.296l-.203 1.437a9.961 9.961 0 0 1 1.539-.422c.232-.045.466-.076.701-.093.231-.017.46-.026.685-.026.345-.007.689.033 1.023.119.244.06.468.183.65.355.164.167.28.374.339.6.072.279.106.566.101.854l-.002.424-1.976.133a5.245 5.245 0 0 0-1.96.44 2.808 2.808 0 0 0-1.159.938c-.25.366-.382.8-.38 1.243-.003.416.099.825.296 1.191.207.377.518.685.896.888.46.24.976.356 1.496.338a3.89 3.89 0 0 0 1.428-.236 3.3 3.3 0 0 0 1.065-.677c.117-.112.228-.23.333-.354.033.175.095.343.183.498.15.259.382.46.66.575.305.123.633.183.963.177.101 0 .2-.003.296-.008.094-.006.187-.02.279-.043l.245-.059c.066-.014.131-.034.194-.059l.186-1.133c-.093.033-.19.055-.287.068-.079.01-.158.016-.237.017Zm-2.815-.76c-.183.144-.381.269-.591.371-.21.102-.431.176-.66.22a3.745 3.745 0 0 1-.718.068 1.908 1.908 0 0 1-.803-.153c-.206-.09-.38-.24-.499-.43a1.263 1.263 0 0 1-.169-.668 1.28 1.28 0 0 1 .22-.795c.184-.215.433-.363.71-.423a5.145 5.145 0 0 1 1.319-.135h1.48l-.008 1.678c-.085.097-.18.186-.28.266ZM66.397 24.841c.32.151.67.226 1.023.22.362.007.721-.071 1.048-.229.294-.143.543-.365.718-.642.18-.298.272-.64.262-.989a1.74 1.74 0 0 0-.558-1.352 2.055 2.055 0 0 0-1.437-.507 2.447 2.447 0 0 0-1.022.21 1.682 1.682 0 0 0-.736.635c-.188.31-.282.668-.27 1.031a1.8 1.8 0 0 0 .262.997c.174.27.42.487.71.626Zm.27-2.434a1.084 1.084 0 0 1 .786-.27c.21-.01.418.04.6.143.148.09.266.223.339.38.076.17.113.355.11.541.003.187-.038.372-.119.541a.88.88 0 0 1-.346.372 1.166 1.166 0 0 1-.6.135 1.273 1.273 0 0 1-.575-.118.769.769 0 0 1-.355-.355 1.274 1.274 0 0 1-.119-.575 1.058 1.058 0 0 1 .28-.794ZM79.135 35.001h2.231l-4.1-4.62 4.016-4.002h-2.113l-2.893 3.179h-.624v-7.32l-1.724.253v12.51h1.724V30.86h.028l3.455 4.142Z"/></svg>
